icons/24x24_exit_outline.svg

<svg xmlns="http://www.w3.org/2000/svg" width="24" height="24" viewBox="0 0 24 24">
  <path fill-rule="evenodd" d="M14,17 L16,17 L16,18 C16,19.6568542 14.6568542,21 13,21 L5,21 C3.34314575,21 2,19.6568542 2,18 L2,6 C2,4.34314575 3.34314575,3 5,3 L13,3 C14.6568542,3 16,4.34314575 16,6 L16,7 L14,7 L14,6 C14,5.44771525 13.5522847,5 13,5 L5,5 C4.44771525,5 4,5.44771525 4,6 L4,18 C4,18.5522847 4.44771525,19 5,19 L13,19 C13.5522847,19 14,18.5522847 14,18 L14,17 Z M18.0472731,10.9551845 L16.8895461,9.78361162 C16.4863425,9.37558579 16.4863425,8.71404521 16.8895461,8.30601937 C17.2927498,7.89799354 17.9464721,7.89799354 18.3496758,8.30601937 L22,12 L18.3496758,15.6939806 C17.9464721,16.1020065 17.2927498,16.1020065 16.8895461,15.6939806 C16.4863425,15.2859548 16.4863425,14.6244142 16.8895461,14.2163884 L18.0472731,13.0448155 L11.0324676,13.0448155 C10.4622515,13.0448155 10,12.5770357 10,12 C10,11.4229643 10.4622515,10.9551845 11.0324676,10.9551845 L18.0472731,10.9551845 Z"/>
</svg>

<svg width="24" height="24" fill="none" xmlns="http://www.w3.org/2000/svg"><path fill-rule="evenodd" clip-rule="evenodd" d="M14 17h2v1a3 3 0 0 1-3 3H5a3 3 0 0 1-3-3V6a3 3 0 0 1 3-3h8a3 3 0 0 1 3 3v1h-2V6a1 1 0 0 0-1-1H5a1 1 0 0 0-1 1v12a1 1 0 0 0 1 1h8a1 1 0 0 0 1-1v-1Zm4.047-6.045L16.89 9.784a1.054 1.054 0 0 1 0-1.478 1.024 1.024 0 0 1 1.46 0L22 12l-3.65 3.694a1.024 1.024 0 0 1-1.46 0 1.054 1.054 0 0 1 0-1.478l1.157-1.171h-7.014c-.57 0-1.033-.468-1.033-1.045s.462-1.045 1.033-1.045h7.014Z" fill="#000"/></svg>
